!!!!SEGMENT: Ric3006-Cuidez_vous_que_Dieu_nous_faille.krn
!!!id: Ric3006
!!!AGN: Chanson
!!!voices: 5
!!!COM: Jean Richafort
!!!OTL: Cuidez vous que Dieu nous faille
**kern	**kern	**kern	**kern	**kern
*part5	*part4	*part3	*part2	*part1
*staff5	*staff4	*staff3	*staff2	*staff1
*I"Bassus	*I"Tenor	*I"Altus	*I"Superius II	*I"Superius I
*I'B	*I'T	*I'A	*I'S. II	*I'S. I
*clefF4	*clefGv2	*clefGv2	*clefG2	*clefG2
*k[]	*k[]	*k[]	*k[]	*k[]
*C:	*C:	*C:	*C:	*C:
*M2/1	*M2/1	*M2/1	*M2/1	*M2/1
*met(C|)	*met(C|)	*met(C|)	*met(C|)	*met(C|)
=1	=1	=1	=1	=1
0r	0r	1r	2d	0r
.	.	.	2d	.
.	.	2d	2a	.
.	.	2d	2a	.
=2	=2	=2	=2	=2
0r	2D	2d	2a	0r
.	2D	2d	2b	.
.	2A	2c	1cc	.
.	2A	2c	.	.
=3	=3	=3	=3	=3
0r	2G	2d	2b	1r
.	2F	2.f	1a	.
.	1B-X	.	.	2d
.	.	4e	.	.
.	.	[2d	2g	2d
=4	=4	=4	=4	=4
2D	1A	2d]	1f	2a
2D	.	4c	.	2a
.	.	4B	.	.
2A	1r	[1c	1e	2.a
2A	.	.	.	.
.	.	.	.	4g
=5	=5	=5	=5	=5
2.A	2r	1c]	0r	2g
.	2c	.	.	2e
4G	.	.	.	.
2F	2d	1r	.	2f
2E	[2e	.	.	2g
=6	=6	=6	=6	=6
2F	2e]	0r	0r	2.a
2G	2d	.	.	.
.	.	.	.	4g
2.A	2c	.	.	2f
.	2B	.	.	[2e
4G	.	.	.	.
=7	=7	=7	=7	=7
2F	1A	1r	0r	4e]
.	.	.	.	4d
4E	.	.	.	1d
4D	.	.	.	.
2E	1r	2G	.	.
2E	.	2G	.	2c
=8	=8	=8	=8	=8
0D	1r	2d	2d	1B
.	.	2d	2d	.
.	2D	2d	2a	1A
.	2D	2d	2a	.
=9	=9	=9	=9	=9
0r	2A	1e	2.a	0r
.	2A	.	.	.
.	.	.	4g	.
.	2.A	[1c	2f	.
.	.	.	2e	.
.	4G	.	.	.
=10	=10	=10	=10	=10
0r	2F	1c]	2f	0r
.	2E	.	2g	.
.	2F	2.A	2a	.
.	2F	.	2a	.
.	.	4A	.	.
=11	=11	=11	=11	=11
0r	2G	2B	4g	2d
.	.	.	4f	.
.	2B-i	2d	4e	2d
.	.	.	4d	.
.	2A	2d	2e	2a
.	2A	2c#i	2e	2a
=12	=12	=12	=12	=12
2D	1D	1d	2d	1.a
2D	.	.	1f	.
2A	1r	2D	.	.
2A	.	2D	2e	2g
=13	=13	=13	=13	=13
2.A	2D	2A	1d	1f
.	2D	2A	.	.
4B	.	.	.	.
2c	2A	2.A	[1c	2e
[2F	2A	.	.	[2a
.	.	4B	.	.
=14	=14	=14	=14	=14
4F]	2.A	2c	1c]	4a]
4E	.	.	.	4g
4F	.	2A	.	2f
8EL	4B	.	.	.
8DJ	.	.	.	.
2C	2c	1r	1r	2e
[2G	2d	.	.	2d
=15	=15	=15	=15	=15
2G]	2B	2G	1r	1g
4F	1d	2G	.	.
4E	.	.	.	.
[1D	.	2d	2d	[1f
.	4c	2d	2d	.
.	4B	.	.	.
=16	=16	=16	=16	=16
1D]	1A	2.d	2a	2f]
.	.	.	2a	2e
.	.	4e	.	.
2D	1r	1f	2.a	1d
2D	.	.	.	.
.	.	.	4b	.
=17	=17	=17	=17	=17
2A	0r	2e	1cc	1c
2A	.	2c	.	.
2G	.	2d	2b	1r
2F	.	[2f	[2a	.
=18	=18	=18	=18	=18
1B-i	1r	4f]	2a]	2d
.	.	4e	.	.
.	.	4d	2g	2d
.	.	4c	.	.
1A	2D	1d	1f	2.a
.	2D	.	.	.
.	.	.	.	4b
=19	=19	=19	=19	=19
1AA	2A	1c	1e	1cc
.	2A	.	.	.
1r	2G	1r	1r	2b
.	2F	.	.	[2a
=20	=20	=20	=20	=20
0r	0B-i	2G	1r	2a]
.	.	2G	.	2g
.	.	2d	2d	2.f
.	.	2d	2d	.
.	.	.	.	4e
=21	=21	=21	=21	=21
2D	1A	2.d	2.a	4f
.	.	.	.	4g
2D	.	.	.	2.a
.	.	4d	4b	.
2A	1r	1c	2cc	.
.	.	.	.	4g
2A	.	.	2cc	4e
.	.	.	.	4f
=22	=22	=22	=22	=22
2G	2r	1d	2b	4g
.	.	.	.	4e
2F	1d	.	2.a	1f
1B-i	.	1r	.	.
.	.	.	4g	.
.	2d	.	2g	4e
.	.	.	.	4d
=23	=23	=23	=23	=23
1A	2c	0r	0a	2e
.	2A	.	.	2f
2r	1c	.	.	1e
[2A	.	.	.	.
=24	=24	=24	=24	=24
2A]	1B	2r	1r	0r
2G	.	1d	.	.
2F	[1A	.	2r	.
2D	.	2d	[2a	.
=25	=25	=25	=25	=25
2.F	1A]	2c	2a]	0r
.	.	2A	2a	.
4F	.	.	.	.
2E	2r	1c	2g	.
2AA	[2A	.	2e	.
=26	=26	=26	=26	=26
0r	2A]	1B	2f	0r
.	2G	.	2g	.
.	2F	2A	2.a	.
.	2D	[2d	.	.
.	.	.	4g	.
=27	=27	=27	=27	=27
0r	2.F	2d]	4f	2r
.	.	.	4e	.
.	.	2d	2f	1a
.	4G	.	.	.
.	1A	2c	1e	.
.	.	2A	.	2a
=28	=28	=28	=28	=28
2r	1r	1c	2r	2g
1A	.	.	2c	2e
.	2r	1B	4d	2f
.	.	.	4c	.
2G	[2d	.	4d	2g
.	.	.	4e	.
=29	=29	=29	=29	=29
2F	2d]	0A	1.f	2.a
2D	2d	.	.	.
.	.	.	.	4g
2F	2c	.	.	4a
.	.	.	.	4b
2F	2A	.	4c	[2cc
.	.	.	4d	.
=30	=30	=30	=30	=30
0E	1c	2r	4e	2cc]
.	.	.	4c	.
.	.	1G	2.e	4b
.	.	.	.	4a
.	1B	.	.	2g
.	.	.	4d	.
.	.	2G	2B	4a
.	.	.	.	4g
=31	=31	=31	=31	=31
1r	[0A	2.F	1c	0a
.	.	4D	.	.
2AA	.	2E	1r	.
2AA	.	2E	.	.
=32	=32	=32	=32	=32
2D	0A]	1D	2.d	0f
2D	.	.	.	.
.	.	.	4d	.
2.D	.	2.d	2a	.
.	.	.	2a	.
4C	.	4d	.	.
=33	=33	=33	=33	=33
1D	2D	2d	2a	0r
.	2D	2d	2b	.
1AA	2A	2c	1cc	.
.	2A	2c	.	.
=34	=34	=34	=34	=34
0r	2G	2d	2b	1r
.	2F	2.f	1a	.
.	1B-i	.	.	2d
.	.	4e	.	.
.	.	[2d	2g	2d
=35	=35	=35	=35	=35
2D	1A	2d]	1f	2a
2D	.	4c	.	2a
.	.	4B	.	.
2A	1r	[1c	1e	2.a
2A	.	.	.	.
.	.	.	.	4g
=36	=36	=36	=36	=36
2.A	2r	1c]	0r	2f
.	2c	.	.	2e
4G	.	.	.	.
2F	2d	1r	.	2f
2E	[2e	.	.	2g
=37	=37	=37	=37	=37
2F	2e]	0r	0r	2.a
2G	2d	.	.	.
.	.	.	.	4g
2.A	2c	.	.	2f
.	2B	.	.	[2e
4G	.	.	.	.
=38	=38	=38	=38	=38
2F	1A	1r	0r	4e]
.	.	.	.	4d
4E	.	.	.	1d
4D	.	.	.	.
2E	1r	2G	.	.
2E	.	2G	.	2c
=39	=39	=39	=39	=39
0D	1r	2d	2d	1B
.	.	2d	2d	.
.	2D	2d	2a	1A
.	2D	2d	2a	.
=40	=40	=40	=40	=40
0r	2A	1e	2.a	0r
.	2A	.	.	.
.	.	.	4g	.
.	2.A	[1c	2f	.
.	.	.	2e	.
.	4G	.	.	.
=41	=41	=41	=41	=41
0r	2F	1c]	2f	0r
.	2E	.	2g	.
.	2F	2.A	2a	.
.	2F	.	2a	.
.	.	4A	.	.
=42	=42	=42	=42	=42
0r	2G	2B	4g	2d
.	.	.	4f	.
.	2B-i	2d	4e	2d
.	.	.	4d	.
.	2A	2d	2e	2a
.	2A	2c#i	2e	2a
=43	=43	=43	=43	=43
2D	1D	1d	1d	2.a
2D	.	.	.	.
.	.	.	.	4g
2A	1r	1r	1c	2f
2A	.	.	.	2e
=44	=44	=44	=44	=44
2A	1r	2r	0r	2f
2G	.	2B	.	2g
1F	2r	2c	.	[1a
.	2A	2d	.	.
=45	=45	=45	=45	=45
1E	2B	4e	2r	2a]
.	.	4d	.	.
.	2c	2.e	2e	2g
1r	2d	.	2f	2f
.	.	4d	.	.
.	2B	[2d	2g	4e
.	.	.	.	4d
=46	=46	=46	=46	=46
2r	1A	2d]	1a	4e
.	.	.	.	4c
2AA	.	2c	.	2.f
2BB	2D	2B	2r	.
.	.	.	.	4d
2C	2G	2G	2e	[2e
=47	=47	=47	=47	=47
2D	2F	1r	2f	4e]
.	.	.	.	4d
2BB	4E	.	2g	1d
.	4D	.	.	.
1AA	2E	2r	[1a	.
.	2E	2E	.	2c#i
=48	=48	=48	=48	=48
[0Dl	[0Dl	2F	2a]	[0dl
.	.	2G	2g	.
.	.	[1A	2f	.
.	.	.	4e	.
.	.	.	4d	.
=49	=49	=49	=49	=49
0D_	0D_	2A]	1.f	0d_
.	.	2F	.	.
.	.	1B-i	.	.
.	.	.	2g	.
=50	=50	=50	=50	=50
00D]	00D]	00Al	00al	00d]
==	==	==	==	==
*-	*-	*-	*-	*-
!!!system-decoration: [*]
!!!RDF**kern: i = editorial accidental
!!!RDF**kern: l = terminal long
!!!ENC: Benjamin Ory
!!!END: 2024/12/5
!!!EED: Benjamin Ory
!!!EEV: 2024/12/05
!!!YEC: Copyright 2024 Benjamin Ory, All Rights Reserved
!!!ONB: Translated from MusicXML on 2024/12/05